!!!COM: Palestrina, Giovanni Perluigi da
!!!OPR: Missa Illumina oculos meos
!!!OMD: Credo
!!!OTL: First Section
**kern	**kern	**kern	**kern	**kern	**kern
*Ibass	*Ibarit	*Itenor	*Itenor	*Icalto	*Icant
!Bassus	!Baritone	!Tenor 2	!Tenor 1	!Altus	!Cantus
*clefF4	*clefF4	*clefGv2	*clefGv2	*clefG2	*clefG2
*k[]	*k[]	*k[]	*k[]	*k[]	*k[]
*E:phr	*E:phr	*E:phr	*E:phr	*E:phr	*E:phr
*M4/2	*M4/2	*M4/2	*M4/2	*M4/2	*M4/2
=1	=1	=1	=1	=1	=1
1r	0r	0E	1r	1r	0r
[1E	.	.	[1B	[1e	.
=2	=2	=2	=2	=2	=2
1E]	0r	1G	1B]	1e]	0r
1AA	.	1A	1c	1e	.
=3	=3	=3	=3	=3	=3
0E	0r	1.G	1B	2.e	0r
.	.	.	.	4d	.
.	.	.	2c	4e	.
.	.	.	.	4f	.
.	.	2G	[2B	2g	.
=4	=4	=4	=4	=4	=4
2D	0r	1A	4B]	2f	0r
.	.	.	4A	.	.
2C	.	.	1A	2e	.
1BB	.	1D	.	1d	.
.	.	.	2G#	.	.
=5	=5	=5	=5	=5	=5
[0AA	1r	1E	1A	1c	1r
.	1A	1r	1c	1e	1a
=6	=6	=6	=6	=6	=6
1AA]	1A	0r	1c	2e	1.a
.	.	.	.	2e	.
1r	1D	.	1d	1f	.
.	.	.	.	.	2b
=7	=7	=7	=7	=7	=7
0r	1A	0r	1c	1e	1cc
.	2A	.	2A	2c	2cc
.	2G	.	2B	[2e	2b
=8	=8	=8	=8	=8	=8
0r	1F	1r	2c	2e]	1a
.	.	.	2A	2d	.
.	[1E	2r	1B	[1e	2g
.	.	[2B	.	.	[2g
=9	=9	=9	=9	=9	=9
2r	0E]	2B]	2r	0e]	2g]
1E	.	2G	1B	.	2e
.	.	2B	.	.	1g
2C	.	2c	2e	.	.
=10	=10	=10	=10	=10	=10
2D	0r	2A	2d	0r	2f
2E	.	1c	2G	.	2.e
1F	.	.	1A	.	.
.	.	.	.	.	8d
.	.	.	.	.	8c
.	.	4B	.	.	2d
.	.	4A	.	.	.
=11	=11	=11	=11	=11	=11
2.E	0r	1G	4B	0r	4e
.	.	.	4G	.	4f
.	.	.	1c	.	4g
8D	.	.	.	.	4e
8C	.	.	.	.	.
1D	.	1F	.	.	2f
.	.	.	2B	.	2f
=12	=12	=12	=12	=12	=12
[0C	1r	0G	2c	2r	1e
.	.	.	1e	1g	.
.	2r	.	.	.	2r
.	[2E	.	2c	2e	[2g
=13	=13	=13	=13	=13	=13
1C]	2E]	0r	1e	1g	2g]
.	2C	.	.	.	2e
1r	2D	.	2d	2f	2f
.	2E	.	[2c	[2e	2g
=14	=14	=14	=14	=14	=14
1r	2F	1r	2c]	2e]	2a
.	2F	.	2A	2d	2a
2r	1E	2r	2B	2e	4g
.	.	.	.	.	4f
[2C	.	[2G	[2c	[2e	4e
.	.	.	.	.	4d
=15	=15	=15	=15	=15	=15
2C]	2r	2G]	2c]	2e]	2c
2C	1E	2G	2c	2e	1cc
2AA	.	[1A	2c	2e	.
2AA	2E	.	[2A	2c	2cc
=16	=16	=16	=16	=16	=16
1.D	2F	2A]	4A]	1.d	2a
.	.	.	4G	.	.
.	2D	2A	4F	.	2a
.	.	.	4E	.	.
.	2F#	2A	2D	.	2.dd
2D	2F#	2A	[2d	2d	.
.	.	.	.	.	4dd
=17	=17	=17	=17	=17	=17
1GG	1G	2B	4d]	1d	1b
.	.	.	4d	.	.
.	.	1G	2B	.	.
[1C	1E	.	[1c	[1e	2r
.	.	2G	.	.	[2g
=18	=18	=18	=18	=18	=18
1C]	2E	1.c	2c]	1e]	2g]
.	4D	.	4B	.	2g
.	4C	.	4A	.	.
1C	2E	.	2G	1g	[1cc
.	2E	2B	2G	.	.
=19	=19	=19	=19	=19	=19
0FF	1F	2A	2A	0f	2cc]
.	.	2G	2B	.	2b
.	1C	1F	1c	.	1a
=20	=20	=20	=20	=20	=20
1C	2r	1G	2c	1e	2g
.	2C	.	2G	.	2cc
2r	2E	2r	2G	2r	2b
2C	2E	2c	[2G	2e	2g
=21	=21	=21	=21	=21	=21
2GG	1G	2B	2G]	2d	1b
2GG	.	2G	2.d	2d	.
1D	1F#	1A	.	1d	2a
.	.	.	8c	.	.
.	.	.	8B	.	.
.	.	.	2A	.	[2dd
=22	=22	=22	=22	=22	=22
2GG	2.G	2G	1B	1d	4dd]
.	.	.	.	.	4cc
1G	.	1B	.	.	4b
.	4F	.	.	.	4a
.	2E	.	1r	2e	2g
2F	2D	2d	.	2f	[2a
=23	=23	=23	=23	=23	=23
1E	1G	4c	0r	2g	4a]
.	.	4B	.	.	4g
.	.	4A	.	2c	1g
.	.	4G	.	.	.
1D	2r	2A	.	1d	.
.	[2D	2A	.	.	2f#
=24	=24	=24	=24	=24	=24
0GG	2D]	1G	2r	2r	1g
.	2D	.	1B	1d	.
.	2.G	1r	.	.	2r
.	.	.	2B	2d	[2g
.	4F	.	.	.	.
=25	=25	=25	=25	=25	=25
0r	1E	0r	2B	2e	2g]
.	.	.	2G	2e	2g
.	1D	.	1d	1f	2a
.	.	.	.	.	2a
=26	=26	=26	=26	=26	=26
1.GG	0r	2r	1G	0g	4b
.	.	.	.	.	4a
.	.	1D	.	.	4g
.	.	.	.	.	4a
.	.	.	2r	.	4b
.	.	.	.	.	4cc
2GG	.	2D	[2G	.	4dd
.	.	.	.	.	4b
=27	=27	=27	=27	=27	=27
2.C	0r	2E	2G]	2.e	0cc
.	.	2E	2G	.	.
4BB	.	.	.	4d	.
1AA	.	1F#	2A	4c	.
.	.	.	.	4B	.
.	.	.	2A	2A	.
=28	=28	=28	=28	=28	=28
1GG	1r	1G	1B	1d	1b
1r	1E	2r	1B	[1e	2r
.	.	[2B	.	.	[2g
=29	=29	=29	=29	=29	=29
0r	1E	2B]	0r	2e]	2g]
.	.	2B	.	2e	2g
.	1A	1c	.	2f	4a
.	.	.	.	.	4g
.	.	.	.	2e	4a
.	.	.	.	.	4b
=30	=30	=30	=30	=30	=30
0r	2A	2A	0r	1.e	2cc
.	2G#	2B	.	.	2b
.	1A	2.c	.	.	2a
.	.	.	.	4A	[2cc
.	.	4B	.	4B	.
=31	=31	=31	=31	=31	=31
0r	1F	4A	0r	2c	4cc]
.	.	4G	.	.	4b
.	.	2A	.	2d	1a
.	1E	2B	.	2.e	.
.	.	2B	.	.	2g#
.	.	.	.	4d	.
=32	=32	=32	=32	=32	=32
2r	2r	1A	2r	2c	0a
2D	2F	.	2A	2d	.
2D	2F	1r	2A	1r	.
2C#	2E	.	2A	.	.
=33	=33	=33	=33	=33	=33
1D	1F	2r	2B-	2r	2r
.	.	2d	2A	2d	2a
1AA	1E	2d	1A	2e	2a
.	.	2c	.	2e	2a
=34	=34	=34	=34	=34	=34
0r	0r	1d	2r	1f	2b-
.	.	.	2d	.	2a
.	.	[1A	2d	1e	1a
.	.	.	2c#	.	.
=35	=35	=35	=35	=35	=35
1D	1F	1A]	2d	0r	0r
.	.	.	2d	.	.
2D	2F	2r	1A	.	.
2C#	2E	2A	.	.	.
=36	=36	=36	=36	=36	=36
1.D	1.F	2A	1r	1r	0r
.	.	2A	.	.	.
.	.	2.B-	2r	2r	.
2D	2F	.	[2d	2d	.
.	.	4A	.	.	.
=37	=37	=37	=37	=37	=37
1AA	1E	1A	2d]	1e	2r
.	.	.	2c	.	1a
1r	2D	1r	1d	1f	.
.	2D	.	.	.	2b
=38	=38	=38	=38	=38	=38
2r	1A	2r	2.c	1e	1cc
1A	.	2A	.	.	.
.	.	.	4d	.	.
.	1E	1B	1e	1r	1b
2G#	.	.	.	.	.
=39	=39	=39	=39	=39	=39
1A	0r	1c	2r	0e	1a
.	.	.	2A	.	.
1E	.	2B	2A	.	1b
.	.	2e	2G#	.	.
=40	=40	=40	=40	=40	=40
1AA	2r	4e	1A	2.c	1.cc
.	.	4d	.	.	.
.	2A	4c	.	.	.
.	.	4B	.	4d	.
2AA	2A	2A	2E	[1e	.
2E	2G#	2B	4r	.	2b
.	.	.	4E	.	.
=41	=41	=41	=41	=41	=41
0AA	1A	0c	2E	2e]	0a
.	.	.	2E	2e	.
.	[1E	.	1A	1e	.
=42	=42	=42	=42	=42	=42
1EE	0E]	1B	1G#	0e	0b
2r	.	2r	2r	.	.
[2E	.	[2G	[2B	.	.
=43	=43	=43	=43	=43	=43
2E]	0r	2G]	2B]	0r	0r
2E	.	2G	2c	.	.
1E	.	1G	2B	.	.
.	.	.	[2c	.	.
=44	=44	=44	=44	=44	=44
2.F	0r	2.A	4c]	0r	0r
.	.	.	4A	.	.
.	.	.	2d	.	.
8E	.	8G	.	.	.
8D	.	8F	.	.	.
2E	.	2G	2c	.	.
[2D	.	[2F	[2B	.	.
=45	=45	=45	=45	=45	=45
4D]	0r	4F]	4B]	0r	0r
4C	.	4E	4A	.	.
4BB	.	4D	1A	.	.
4AA	.	4C	.	.	.
1BB	.	1D	.	.	.
.	.	.	2G#	.	.
=46	=46	=46	=46	=46	=46
0AA	2r	1E	1A	2r	2r
.	1A	.	.	1e	1a
.	.	1r	2.c	.	.
.	2A	.	.	2e	2a
.	.	.	4c	.	.
=47	=47	=47	=47	=47	=47
0r	2F	0r	2c	2f	2a
.	2D	.	2d	2f	2a
.	1A	.	2c	1e	1cc
.	.	.	2A	.	.
=48	=48	=48	=48	=48	=48
0r	2G	0r	2B	2e	2b
.	2.F	.	2c	2.A	2.a
.	.	.	[1A	.	.
.	4E	.	.	4B	4g
.	4D	.	.	[2c	4f
.	4C	.	.	.	4e
=49	=49	=49	=49	=49	=49
1r	1D	1r	2A]	2c]	1f
.	.	.	4G	2B	.
.	.	.	4F	.	.
2r	1C	2r	1G	2c	2e
[2C	.	[2c	.	[2e	[2g
=50	=50	=50	=50	=50	=50
2C]	1r	2c]	2r	2e]	2g]
2C	.	2c	1G	2e	2g
2C	2r	2e	.	2g	2cc
2C	[2G	2e	2G	2g	2cc
=51	=51	=51	=51	=51	=51
0GG	2G]	2.d	2.B	1g	1.b
.	2G	.	.	.	.
.	.	4c	4c	.	.
.	2G	1B	1d	2r	.
.	2G	.	.	[2g	4a
.	.	.	.	.	4g
=52	=52	=52	=52	=52	=52
1r	0D	2r	2.d	2g]	0a
.	.	1d	.	4f	.
.	.	.	8c	4e	.
.	.	.	8B	.	.
1D	.	.	2A	1f	.
.	.	[2A	2d	.	.
=53	=53	=53	=53	=53	=53
2.AA	1A	4A]	1c	0e	1.cc
.	.	4B	.	.	.
.	.	1c	.	.	.
4BB	.	.	.	.	.
1C	1E	.	2.G	.	.
.	.	[2G	.	.	2cc
.	.	.	4A	.	.
=54	=54	=54	=54	=54	=54
1GG	1G	4G]	1B	1d	1b
.	.	4A	.	.	.
.	.	2B	.	.	.
1r	2r	2.E	1r	2r	1g
.	[2c	.	.	[2e	.
.	.	4F	.	.	.
=55	=55	=55	=55	=55	=55
0r	2c]	1G	0r	2e]	1g
.	2B	.	.	2d	.
.	2c	1r	.	2e	2g
.	2c	.	.	2e	2g
=56	=56	=56	=56	=56	=56
1r	2A	1r	1r	2f	2a
.	2G	.	.	2g	2b
2r	1c	2r	2r	2e	1g
2C	.	2G	2c	2e	.
=57	=57	=57	=57	=57	=57
2C	0r	2G	2c	2e	0r
2C	.	2G	2c	2e	.
2BB	.	1G	2d	2d	.
[2C	.	.	[2e	[2g	.
=58	=58	=58	=58	=58	=58
4C]	0r	1G	4e]	4g]	0r
4D	.	.	4d	4f	.
2E	.	.	1c	1e	.
2F	.	2A	.	.	.
2G	.	2B	2B	2d	.
=59	=59	=59	=59	=59	=59
[0C	0r	0G	[0c	1e	2r
.	.	.	.	.	2e
.	.	.	.	2r	1g
.	.	.	.	2e	.
=60	=60	=60	=60	=60	=60
0C]	2r	0r	0c]	1g	2e
.	2E	.	.	.	2.g
.	1G	.	.	2e	.
.	.	.	.	.	4f
.	.	.	.	[2g	[2e
=61	=61	=61	=61	=61	=61
0r	2.E	0r	0r	4g]	4e]
.	.	.	.	4f	4d
.	.	.	.	2e	2c
.	4F	.	.	.	.
.	2G	.	.	2d	4B
.	.	.	.	.	4A
.	2A	.	.	2c	[2a
=62	=62	=62	=62	=62	=62
1r	0E	2r	0r	1B	2a]
.	.	2B	.	.	2g#
1AA	.	1c	.	1A	2a
.	.	.	.	.	[2cc
=63	=63	=63	=63	=63	=63
1C	[0E	2G	2r	0e	4cc]
.	.	.	.	.	8b
.	.	.	.	.	8a
.	.	2.c	2G	.	2g
2AA	.	.	[1c	.	2a
.	.	4B	.	.	.
[2C	.	2A	.	.	[2e
=64	=64	=64	=64	=64	=64
4C]	0E]	2G	1c]	[0e	2e]
4BB	.	.	.	.	.
1AA	.	4A	.	.	1cc
.	.	4B	.	.	.
.	.	4c	2A	.	.
.	.	4d	.	.	.
2GG#	.	[2e	2B	.	2b
=65	=65	=65	=65	=65	=65
0AA	[0E	4e]	4c	0e]	0a
.	.	4d	4B	.	.
.	.	4c	4A	.	.
.	.	4B	4G#	.	.
.	.	1c	1A	.	.
=66	=66	=66	=66	=66	=66
1EE	1E]	1B	1G#	1e	1b
1r	1r	1r	1r	1r	1r
=67	=67	=67	=67	=67	=67
0r	0r	0r	0A	0c	0e
=68	=68	=68	=68	=68	=68
0r	0r	0r	1F	1.f	1.a
.	.	.	1c	.	.
.	.	.	.	2e	2g
=69	=69	=69	=69	=69	=69
0r	0r	0r	2F	1f	1a
.	.	.	2D	.	.
.	.	.	4D	1d	1f
.	.	.	4E	.	.
.	.	.	4F	.	.
.	.	.	4G	.	.
=70	=70	=70	=70	=70	=70
0AA	0E	1r	0A	0c#	0e
.	.	1A	.	.	.
=71	=71	=71	=71	=71	=71
1.D	1.F	1.A	0r	0r	1r
.	.	.	.	.	[1a
2C#	2E	2A	.	.	.
=72	=72	=72	=72	=72	=72
1D	1F	1A	0r	0r	1a]
1BB	1D	1G#	.	.	[1dd
=73	=73	=73	=73	=73	=73
0AA	1E	0A	2r	[0e	2dd]
.	.	.	1E	.	4cc
.	.	.	.	.	4b
.	1r	.	.	.	2cc
.	.	.	[2A	.	2cc
=74	=74	=74	=74	=74	=74
0r	0E	0B	2A]	0e]	0b
.	.	.	4G#	.	.
.	.	.	4F#	.	.
.	.	.	2G#	.	.
.	.	.	2G#	.	.
=75	=75	=75	=75	=75	=75
0r	1.A	1c	4A	1e	2.a
.	.	.	4B	.	.
.	.	.	4c	.	.
.	.	.	4d	.	4b
.	.	2A	1e	2c	2cc
.	2G#	2B	.	2e	2b
=76	=76	=76	=76	=76	=76
0r	1A	2c	1.c	4f	0a
.	.	.	.	4e	.
.	.	2A	.	1e	.
.	1F	1A	.	.	.
.	.	.	2A	2d	.
=77	=77	=77	=77	=77	=77
1r	0E	1r	0B	0e	0g#
[1E	.	[1B	.	.	.
=78	=78	=78	=78	=78	=78
1E]	0r	1B]	0r	2r	2r
.	.	.	.	1e	1g
1E	.	2B	.	.	.
.	.	[2c	.	2e	2g
=79	=79	=79	=79	=79	=79
1.F	0r	4c]	0r	1c	1.a
.	.	4B	.	.	.
.	.	4A	.	.	.
.	.	4G	.	.	.
.	.	2F	.	2.c	.
2E	.	2C	.	.	2g
.	.	.	.	4B	.
=80	=80	=80	=80	=80	=80
1F	0r	1c	0r	2A	1a
.	.	.	.	1c	.
1D	.	1d	.	.	1f
.	.	.	.	2B	.
=81	=81	=81	=81	=81	=81
0C	1r	0G	1r	1c	1e
.	1E	.	1c	1e	1g
=82	=82	=82	=82	=82	=82
0r	1.A	0r	1c	1e	1.cc
.	.	.	2A	1e	.
.	2G#	.	[2e	.	2b
=83	=83	=83	=83	=83	=83
0r	1A	0r	4e]	2c	1cc
.	.	.	4d	.	.
.	.	.	1c	2.e	.
.	1F	.	.	.	1a
.	.	.	.	8d	.
.	.	.	.	8c	.
.	.	.	2A	2d	.
=84	=84	=84	=84	=84	=84
0C	[0E	0G	2c	[0e	2.g
.	.	.	4B	.	.
.	.	.	4A	.	4f
.	.	.	2G	.	4e
.	.	.	.	.	4d
.	.	.	2E	.	[2c
=85	=85	=85	=85	=85	=85
1.AA	1E_	1.c	1.A	1e_	2c]
.	.	.	.	.	2cc
.	1E_	.	.	1e_	2a
2E	.	2B	2G#	.	2b
=86	=86	=86	=86	=86	=86
1AA	0E]	1c	1A	0e]	1.a
1AA	.	1A	1c	.	.
.	.	.	.	.	2a
=87	=87	=87	=87	=87	=87
0E	[0E	[0G#	[0B	[0e	[0b
=88	=88	=88	=88	=88	=88
0EE	0E]	0G#]	0B]	0e]	0b]
*-	*-	*-	*-	*-	*-
!!!CDT: 1525/^1526/-1594/2/2
!!!OCY: Italia
!!!AGN: Mass (Parody)
!!!AST: renaissance, vocal
!!!ASW: Motet (Silva)
!!!PWK: Masses, Book 10
!!!RNB: Cadence finals: G,C,A
!!!YOR: Le Opere Complete, v. 27, p. 155
!!!YOO: Rome, Italy: Fratelli Scalera
!!!END: 1992//
!!!EED: John Miller
!!!YEC: Copyright 2000, John Miller
!!!YEN: United States of America
!!!YEM: Rights to all derivative electronic formats reserved.
!!!YEM: Refer to licensing agreement for further details.
!!!YEM: This file must be accompanied by the licensing agreement.
!!!YEM: A copy of the licensing agreement may be found at http://www.music-cog.ohio-state.edu/HumdrumDatabases/Palestrina/license.txt
!!!EMD: converted to Humdrum by Bret Aarden
